X:82
T:The Fermoy Lasses
R:reel
M:4/4
L:1/8
K:Emin
|GE ~E2 BE ~E2|GE ~E2 BcBA|GE ~E2 BE ~E2|AFDF AcBA|
|GE ~E2 BE ~E2|GE ~E2 BcBA|~G3 F GBdB|AFDF AcBA|
|G2 BG dGBG|~G2 Bd efg2|G2 BG dGBG|AFDF AcBA|
|G2 BG dGBG|~G2 Bd efgf|gage dedB|AFDF AcBA|

